systematic/svg/Sony - Playstation 3 CECH-4000 K.svg

<?xml version="1.0" encoding="UTF-8" standalone="no"?>
<svg
   xmlns:dc="http://purl.org/dc/elements/1.1/"
   xmlns:cc="http://creativecommons.org/ns#"
   xmlns:rdf="http://www.w3.org/1999/02/22-rdf-syntax-ns#"
   xmlns:svg="http://www.w3.org/2000/svg"
   xmlns="http://www.w3.org/2000/svg"
   viewBox="0 0 320 320"
   height="320"
   width="320"
   xml:space="preserve"
   version="1.1"
   id="svg2"><metadata
     id="metadata8"><rdf:RDF><cc:Work
         rdf:about=""><dc:format>image/svg+xml</dc:format><dc:type
           rdf:resource="http://purl.org/dc/dcmitype/StillImage" /></cc:Work></rdf:RDF></metadata><defs
     id="defs6"><clipPath
       id="clipPath16"
       clipPathUnits="userSpaceOnUse"><path
         id="path18"
         d="M 0,256 256,256 256,0 0,0 0,256 Z" /></clipPath><clipPath
       id="clipPath24"
       clipPathUnits="userSpaceOnUse"><path
         id="path26"
         d="M 3.99998,226 252,226 252,30 3.99998,30 l 0,196 z" /></clipPath><clipPath
       id="clipPath102"
       clipPathUnits="userSpaceOnUse"><path
         id="path104"
         d="M 0,256 256,256 256,0 0,0 0,256 Z" /></clipPath><clipPath
       id="clipPath110"
       clipPathUnits="userSpaceOnUse"><path
         id="path112"
         d="m 122,184 2,0 0,-116 -2,0 0,116 z" /></clipPath></defs><g
     transform="matrix(1.25,0,0,-1.25,0,320)"
     id="g10"><g
       id="g12"><g
         clip-path="url(#clipPath16)"
         id="g14"><g
           id="g20"><g
             id="g22" /><g
             id="g28"><g
               style="opacity:0.5"
               id="g30"
               clip-path="url(#clipPath24)"><g
                 id="g32"
                 transform="translate(252,226)"><path
                   id="path34"
                   style="fill:#ffffff;fill-opacity:1;fill-rule:nonzero;stroke:none"
                   d="m 0,0 -8,0 -232,0 -8,0 0,-8 0,-180 0,-8 8,0 232,0 8,0 0,8 0,180 0,8 z" /></g></g></g></g></g></g><path
       id="path36"
       style="fill:#333333;fill-opacity:1;fill-rule:nonzero;stroke:none"
       d="m 12,218 232,0 0,-180 -232,0 0,180 z" /><path
       id="path38"
       style="fill:#191919;fill-opacity:1;fill-rule:nonzero;stroke:none"
       d="m 12,186 232,0 0,-2 -232,0 0,2 z" /><path
       id="path40"
       style="fill:#262626;fill-opacity:1;fill-rule:nonzero;stroke:none"
       d="m 12,182 232,0 0,-2 -232,0 0,2 z" /><path
       id="path42"
       style="fill:#262626;fill-opacity:1;fill-rule:nonzero;stroke:none"
       d="m 12,178 232,0 0,-2 -232,0 0,2 z" /><path
       id="path44"
       style="fill:#262626;fill-opacity:1;fill-rule:nonzero;stroke:none"
       d="m 12,174 232,0 0,-2 -232,0 0,2 z" /><path
       id="path46"
       style="fill:#262626;fill-opacity:1;fill-rule:nonzero;stroke:none"
       d="m 12,170 232,0 0,-2 -232,0 0,2 z" /><path
       id="path48"
       style="fill:#262626;fill-opacity:1;fill-rule:nonzero;stroke:none"
       d="m 12,166 232,0 0,-2 -232,0 0,2 z" /><path
       id="path50"
       style="fill:#262626;fill-opacity:1;fill-rule:nonzero;stroke:none"
       d="m 12,162 232,0 0,-2 -232,0 0,2 z" /><path
       id="path52"
       style="fill:#262626;fill-opacity:1;fill-rule:nonzero;stroke:none"
       d="m 12,158 232,0 0,-2 -232,0 0,2 z" /><path
       id="path54"
       style="fill:#262626;fill-opacity:1;fill-rule:nonzero;stroke:none"
       d="m 12,154 232,0 0,-2 -232,0 0,2 z" /><path
       id="path56"
       style="fill:#262626;fill-opacity:1;fill-rule:nonzero;stroke:none"
       d="m 12,150 232,0 0,-2 -232,0 0,2 z" /><path
       id="path58"
       style="fill:#262626;fill-opacity:1;fill-rule:nonzero;stroke:none"
       d="m 12,146 232,0 0,-2 -232,0 0,2 z" /><path
       id="path60"
       style="fill:#262626;fill-opacity:1;fill-rule:nonzero;stroke:none"
       d="m 12,142 232,0 0,-2 -232,0 0,2 z" /><path
       id="path62"
       style="fill:#262626;fill-opacity:1;fill-rule:nonzero;stroke:none"
       d="m 12,138 232,0 0,-2 -232,0 0,2 z" /><path
       id="path64"
       style="fill:#262626;fill-opacity:1;fill-rule:nonzero;stroke:none"
       d="m 12,134 232,0 0,-2 -232,0 0,2 z" /><path
       id="path66"
       style="fill:#262626;fill-opacity:1;fill-rule:nonzero;stroke:none"
       d="m 12,130 232,0 0,-2 -232,0 0,2 z" /><path
       id="path68"
       style="fill:#262626;fill-opacity:1;fill-rule:nonzero;stroke:none"
       d="m 12,126 232,0 0,-2 -232,0 0,2 z" /><path
       id="path70"
       style="fill:#262626;fill-opacity:1;fill-rule:nonzero;stroke:none"
       d="m 12,122 232,0 0,-2 -232,0 0,2 z" /><path
       id="path72"
       style="fill:#262626;fill-opacity:1;fill-rule:nonzero;stroke:none"
       d="m 12,118 232,0 0,-2 -232,0 0,2 z" /><path
       id="path74"
       style="fill:#262626;fill-opacity:1;fill-rule:nonzero;stroke:none"
       d="m 12,114 232,0 0,-2 -232,0 0,2 z" /><path
       id="path76"
       style="fill:#262626;fill-opacity:1;fill-rule:nonzero;stroke:none"
       d="m 12,110 232,0 0,-2 -232,0 0,2 z" /><path
       id="path78"
       style="fill:#262626;fill-opacity:1;fill-rule:nonzero;stroke:none"
       d="m 12,106 232,0 0,-2 -232,0 0,2 z" /><path
       id="path80"
       style="fill:#262626;fill-opacity:1;fill-rule:nonzero;stroke:none"
       d="m 12,102 232,0 0,-2 -232,0 0,2 z" /><path
       id="path82"
       style="fill:#262626;fill-opacity:1;fill-rule:nonzero;stroke:none"
       d="m 12,98 232,0 0,-2 -232,0 0,2 z" /><path
       id="path84"
       style="fill:#262626;fill-opacity:1;fill-rule:nonzero;stroke:none"
       d="m 12,94 232,0 0,-2 -232,0 0,2 z" /><path
       id="path86"
       style="fill:#262626;fill-opacity:1;fill-rule:nonzero;stroke:none"
       d="m 12,90 232,0 0,-2 -232,0 0,2 z" /><path
       id="path88"
       style="fill:#262626;fill-opacity:1;fill-rule:nonzero;stroke:none"
       d="m 12,86 232,0 0,-2 -232,0 0,2 z" /><path
       id="path90"
       style="fill:#262626;fill-opacity:1;fill-rule:nonzero;stroke:none"
       d="m 12,82 232,0 0,-2 -232,0 0,2 z" /><path
       id="path92"
       style="fill:#262626;fill-opacity:1;fill-rule:nonzero;stroke:none"
       d="m 12,78 232,0 0,-2 -232,0 0,2 z" /><path
       id="path94"
       style="fill:#262626;fill-opacity:1;fill-rule:nonzero;stroke:none"
       d="m 12,74 232,0 0,-2 -232,0 0,2 z" /><path
       id="path96"
       style="fill:#191919;fill-opacity:1;fill-rule:nonzero;stroke:none"
       d="m 12,70 232,0 0,-2 -232,0 0,2 z" /><g
       id="g98"><g
         clip-path="url(#clipPath102)"
         id="g100"><g
           id="g106"><g
             id="g108" /><g
             id="g114"><g
               style="opacity:0.89999402"
               id="g116"
               clip-path="url(#clipPath110)"><path
                 id="path118"
                 style="fill:#191919;fill-opacity:1;fill-rule:nonzero;stroke:none"
                 d="m 122,184 2,0 0,-116 -2,0 0,116 z" /></g></g></g></g></g><path
       id="path120"
       style="fill:#404040;fill-opacity:1;fill-rule:nonzero;stroke:none"
       d="m 12,212 232,0 0,-16 -232,0 0,16 z" /><path
       id="path122"
       style="fill:#404040;fill-opacity:1;fill-rule:nonzero;stroke:none"
       d="m 12,60 232,0 0,-16 -232,0 0,16 z" /></g></svg>

<?xml version="1.0" encoding="UTF-8" standalone="no"?>
<svg
   xmlns:dc="http://purl.org/dc/elements/1.1/"
   xmlns:cc="http://creativecommons.org/ns#"
   xmlns:rdf="http://www.w3.org/1999/02/22-rdf-syntax-ns#"
   xmlns:svg="http://www.w3.org/2000/svg"
   xmlns="http://www.w3.org/2000/svg"
   viewBox="0 0 330.66665 261.33331"
   height="261.33331"
   width="330.66666"
   xml:space="preserve"
   id="svg2"
   version="1.1"><metadata
     id="metadata8"><rdf:RDF><cc:Work
         rdf:about=""><dc:format>image/svg+xml</dc:format><dc:type
           rdf:resource="http://purl.org/dc/dcmitype/StillImage" /></cc:Work></rdf:RDF></metadata><defs
     id="defs6"><clipPath
       id="clipPath18"
       clipPathUnits="userSpaceOnUse"><path
         id="path16"
         d="M 0,256 H 256 V 0 H 0 Z" /></clipPath><clipPath
       id="clipPath26"
       clipPathUnits="userSpaceOnUse"><path
         id="path24"
         d="M 3.99998,226 H 252 V 30 H 3.99998 Z" /></clipPath><clipPath
       id="clipPath104"
       clipPathUnits="userSpaceOnUse"><path
         id="path102"
         d="M 0,256 H 256 V 0 H 0 Z" /></clipPath><clipPath
       id="clipPath112"
       clipPathUnits="userSpaceOnUse"><path
         id="path110"
         d="m 122,184 h 2 V 68 h -2 z" /></clipPath></defs><g
     transform="matrix(1.3333333,0,0,-1.3333333,-5.3333332,301.33333)"
     id="g10"><g
       id="g12"><g
         clip-path="url(#clipPath18)"
         id="g14"><g
           id="g20"><g
             id="g22" /><g
             id="g34"><g
               style="opacity:0.5"
               id="g32"
               clip-path="url(#clipPath26)"><g
                 id="g30"
                 transform="translate(252,226)"><path
                   id="path28"
                   style="fill:#ffffff;fill-opacity:1;fill-rule:nonzero;stroke:none"
                   d="m 0,0 h -8 -232 -8 v -8 -180 -8 h 8 232 8 v 8 180 z" /></g></g></g></g></g></g><path
       id="path36"
       style="fill:#333333;fill-opacity:1;fill-rule:nonzero;stroke:none"
       d="M 12,218 H 244 V 38 H 12 Z" /><path
       id="path38"
       style="fill:#191919;fill-opacity:1;fill-rule:nonzero;stroke:none"
       d="m 12,186 h 232 v -2 H 12 Z" /><path
       id="path40"
       style="fill:#262626;fill-opacity:1;fill-rule:nonzero;stroke:none"
       d="m 12,182 h 232 v -2 H 12 Z" /><path
       id="path42"
       style="fill:#262626;fill-opacity:1;fill-rule:nonzero;stroke:none"
       d="m 12,178 h 232 v -2 H 12 Z" /><path
       id="path44"
       style="fill:#262626;fill-opacity:1;fill-rule:nonzero;stroke:none"
       d="m 12,174 h 232 v -2 H 12 Z" /><path
       id="path46"
       style="fill:#262626;fill-opacity:1;fill-rule:nonzero;stroke:none"
       d="m 12,170 h 232 v -2 H 12 Z" /><path
       id="path48"
       style="fill:#262626;fill-opacity:1;fill-rule:nonzero;stroke:none"
       d="m 12,166 h 232 v -2 H 12 Z" /><path
       id="path50"
       style="fill:#262626;fill-opacity:1;fill-rule:nonzero;stroke:none"
       d="m 12,162 h 232 v -2 H 12 Z" /><path
       id="path52"
       style="fill:#262626;fill-opacity:1;fill-rule:nonzero;stroke:none"
       d="m 12,158 h 232 v -2 H 12 Z" /><path
       id="path54"
       style="fill:#262626;fill-opacity:1;fill-rule:nonzero;stroke:none"
       d="m 12,154 h 232 v -2 H 12 Z" /><path
       id="path56"
       style="fill:#262626;fill-opacity:1;fill-rule:nonzero;stroke:none"
       d="m 12,150 h 232 v -2 H 12 Z" /><path
       id="path58"
       style="fill:#262626;fill-opacity:1;fill-rule:nonzero;stroke:none"
       d="m 12,146 h 232 v -2 H 12 Z" /><path
       id="path60"
       style="fill:#262626;fill-opacity:1;fill-rule:nonzero;stroke:none"
       d="m 12,142 h 232 v -2 H 12 Z" /><path
       id="path62"
       style="fill:#262626;fill-opacity:1;fill-rule:nonzero;stroke:none"
       d="m 12,138 h 232 v -2 H 12 Z" /><path
       id="path64"
       style="fill:#262626;fill-opacity:1;fill-rule:nonzero;stroke:none"
       d="m 12,134 h 232 v -2 H 12 Z" /><path
       id="path66"
       style="fill:#262626;fill-opacity:1;fill-rule:nonzero;stroke:none"
       d="m 12,130 h 232 v -2 H 12 Z" /><path
       id="path68"
       style="fill:#262626;fill-opacity:1;fill-rule:nonzero;stroke:none"
       d="m 12,126 h 232 v -2 H 12 Z" /><path
       id="path70"
       style="fill:#262626;fill-opacity:1;fill-rule:nonzero;stroke:none"
       d="m 12,122 h 232 v -2 H 12 Z" /><path
       id="path72"
       style="fill:#262626;fill-opacity:1;fill-rule:nonzero;stroke:none"
       d="m 12,118 h 232 v -2 H 12 Z" /><path
       id="path74"
       style="fill:#262626;fill-opacity:1;fill-rule:nonzero;stroke:none"
       d="m 12,114 h 232 v -2 H 12 Z" /><path
       id="path76"
       style="fill:#262626;fill-opacity:1;fill-rule:nonzero;stroke:none"
       d="m 12,110 h 232 v -2 H 12 Z" /><path
       id="path78"
       style="fill:#262626;fill-opacity:1;fill-rule:nonzero;stroke:none"
       d="m 12,106 h 232 v -2 H 12 Z" /><path
       id="path80"
       style="fill:#262626;fill-opacity:1;fill-rule:nonzero;stroke:none"
       d="m 12,102 h 232 v -2 H 12 Z" /><path
       id="path82"
       style="fill:#262626;fill-opacity:1;fill-rule:nonzero;stroke:none"
       d="M 12,98 H 244 V 96 H 12 Z" /><path
       id="path84"
       style="fill:#262626;fill-opacity:1;fill-rule:nonzero;stroke:none"
       d="M 12,94 H 244 V 92 H 12 Z" /><path
       id="path86"
       style="fill:#262626;fill-opacity:1;fill-rule:nonzero;stroke:none"
       d="M 12,90 H 244 V 88 H 12 Z" /><path
       id="path88"
       style="fill:#262626;fill-opacity:1;fill-rule:nonzero;stroke:none"
       d="M 12,86 H 244 V 84 H 12 Z" /><path
       id="path90"
       style="fill:#262626;fill-opacity:1;fill-rule:nonzero;stroke:none"
       d="M 12,82 H 244 V 80 H 12 Z" /><path
       id="path92"
       style="fill:#262626;fill-opacity:1;fill-rule:nonzero;stroke:none"
       d="M 12,78 H 244 V 76 H 12 Z" /><path
       id="path94"
       style="fill:#262626;fill-opacity:1;fill-rule:nonzero;stroke:none"
       d="M 12,74 H 244 V 72 H 12 Z" /><path
       id="path96"
       style="fill:#191919;fill-opacity:1;fill-rule:nonzero;stroke:none"
       d="M 12,70 H 244 V 68 H 12 Z" /><g
       id="g98"><g
         clip-path="url(#clipPath104)"
         id="g100"><g
           id="g106"><g
             id="g108" /><g
             id="g118"><g
               style="opacity:0.89999402"
               id="g116"
               clip-path="url(#clipPath112)"><path
                 id="path114"
                 style="fill:#191919;fill-opacity:1;fill-rule:nonzero;stroke:none"
                 d="m 122,184 h 2 V 68 h -2 z" /></g></g></g></g></g><path
       id="path120"
       style="fill:#404040;fill-opacity:1;fill-rule:nonzero;stroke:none"
       d="M 12,212 H 244 V 196 H 12 Z" /><path
       id="path122"
       style="fill:#404040;fill-opacity:1;fill-rule:nonzero;stroke:none"
       d="M 12,60 H 244 V 44 H 12 Z" /></g></svg>
